X: 2409
T: YANKEE DOODLE
N: Not the usual Yankee Doodle.
R: reel
B: James Kerr "Merry Melodies" v.2 p.46 #409
Z: 2016 John Chambers <jc:trillian.mit.edu>
M: C
L: 1/8
K: C
G2 |\
(3ccc c2 dcde | (3ccc c2 BdBG |\
(3ccc c2 dcde | cgec BGAB |\
(3ccc c2 dcde | (3(fgf) (3(efe) (3(ded) (3(cdc) |\
BG^FG ^GA_B=B | c2e2c2 :|
|: c2 |\
afcA FCA,C | FAcf a2(g^f) |\
gecG ECG,C | EGce g2(fe) |\
afcA FCA,C | FAcf afdc |\
BG^FG ^GA_B=B | c2e2c2 :|
